src/pages/elements/images/ase.svg

<?xml version="1.0" encoding="UTF-8"?>
<svg width="31px" height="32px" viewBox="0 0 31 32" version="1.1" xmlns="http://www.w3.org/2000/svg" xmlns:xlink="http://www.w3.org/1999/xlink">
    <!-- Generator: Sketch 51.1 (57501) - http://www.bohemiancoding.com/sketch -->
    <title>Group</title>
    <desc>Created with Sketch.</desc>
    <defs>
        <polygon id="path-1" points="0.128085436 0.0486180258 30.985603 0.0486180258 30.985603 23.3505236 0.128085436 23.3505236"></polygon>
        <linearGradient x1="50%" y1="100%" x2="50%" y2="0%" id="linearGradient-3">
            <stop stop-color="#DEDFD9" offset="0%"></stop>
            <stop stop-color="#FFFFFE" offset="100%"></stop>
        </linearGradient>
        <linearGradient x1="50.0002368%" y1="98.1225258%" x2="50.0002368%" y2="-1.87811892%" id="linearGradient-4">
            <stop stop-color="#D8D8D2" offset="0%"></stop>
            <stop stop-color="#FFFFFE" offset="100%"></stop>
        </linearGradient>
    </defs>
    <g id="Page-1" stroke="none" stroke-width="1" fill="none" fill-rule="evenodd">
        <g id="Group">
            <polygon id="Fill-86" fill="#4D7576" points="0.128085436 31.951382 30.985603 31.951382 30.985603 0.460635193 0.128085436 0.460635193"></polygon>
            <polygon id="Fill-87" fill="#DCDAD7" points="0.128085436 31.951382 30.985603 31.951382 30.985603 0.0486180258 0.128085436 0.0486180258"></polygon>
            <g id="Group-90">
                <mask id="mask-2" fill="white">
                    <use xlink:href="#path-1"></use>
                </mask>
                <g id="Clip-89"></g>
                <polygon id="Fill-88" fill="url(#linearGradient-3)" mask="url(#mask-2)" points="0.128085436 23.3505236 30.985603 23.3505236 30.985603 0.0486180258 0.128085436 0.0486180258"></polygon>
            </g>
            <polygon id="Fill-91" fill="url(#linearGradient-4)" points="1.12351569 22.3504206 29.9903094 22.3504206 29.9903094 1.04885837 1.12351569 1.04885837"></polygon>
            <polygon id="Fill-93" fill="#0C0C0A" points="0.128085436 31.951382 30.985603 31.951382 30.985603 23.3505236 0.128085436 23.3505236"></polygon>
            <path d="M12.3023532,27.911279 L12.0055832,26.8449785 C11.9208309,26.5466781 11.8359418,26.1739399 11.7652693,25.8757768 L11.7510527,25.8757768 C11.6803802,26.1739399 11.6097076,26.5542318 11.5319268,26.8449785 L11.2493734,27.911279 L12.3023532,27.911279 Z M11.0938118,28.761133 L10.7546656,30.0511588 L9.63798478,30.0511588 L11.0938118,25.0257854 L12.5072626,25.0257854 L13.9844144,30.0511588 L12.8252207,30.0511588 L12.4577781,28.761133 L11.0938118,28.761133 Z" id="Fill-94" fill="#E56F34"></path>
            <path d="M14.6557351,28.8804807 C14.9455336,29.0370472 15.3907569,29.1934764 15.8499234,29.1934764 C16.3447679,29.1934764 16.6064066,28.9774421 16.6064066,28.6494764 C16.6064066,28.3360687 16.3801725,28.1572532 15.8076839,27.9409442 C15.0162061,27.6503348 14.5001735,27.1879142 14.5001735,26.4574077 C14.5001735,25.5998627 15.1787393,24.9436567 16.3023917,24.9436567 C16.8393389,24.9436567 17.2352145,25.0630043 17.5180414,25.1973219 L17.2777274,26.1143348 C17.0870346,26.0172361 16.747615,25.8757768 16.2812036,25.8757768 C15.8147922,25.8757768 15.5886947,26.0993648 15.5886947,26.3604464 C15.5886947,26.6809957 15.8571683,26.8227296 16.4720331,27.0685665 C17.3129953,27.3966695 17.7087342,27.8590901 17.7087342,28.5673476 C17.7087342,29.4099227 17.0938694,30.1257339 15.7863591,30.1257339 C15.2423036,30.1257339 14.7052196,29.9765837 14.4366093,29.8200172 L14.6557351,28.8804807" id="Fill-95" fill="#E56F34"></path>
            <polyline id="Fill-96" fill="#E56F34" points="21.2705209 27.9261116 19.5180606 27.9261116 19.5180606 29.1190386 21.4757036 29.1190386 21.4757036 30.0511588 18.4366477 30.0511588 18.4366477 25.0257854 21.3765981 25.0257854 21.3765981 25.9579056 19.5180606 25.9579056 19.5180606 27.0015451 21.2705209 27.0015451 21.2705209 27.9261116"></polyline>
            <polyline id="Fill-97" fill="#883725" points="25.3118419 17.0227639 22.2532383 17.0226266 22.2532383 12.4769785 26.7776478 12.4769785 26.7776478 15.5747983"></polyline>
            <path d="M22.4794724,12.7042747 L26.5515504,12.7042747 L26.5515504,15.7981116 L25.5419036,16.7954678 L22.4794724,16.7954678 L22.4794724,12.7042747 Z M22.0270041,17.2501974 L27.0040187,17.2501974 L27.0040187,12.2496824 L22.0270041,12.2496824 L22.0270041,17.2501974 Z" id="Fill-98" fill="#FFFFFE"></path>
            <path d="M26.7913176,16.6989185 C26.7913176,16.8922918 26.6354826,17.0489957 26.4430127,17.0489957 C26.2506795,17.0489957 26.0945711,16.8922918 26.0945711,16.6989185 C26.0945711,16.5055451 26.2506795,16.3488412 26.4430127,16.3488412 C26.6354826,16.3488412 26.7913176,16.5055451 26.7913176,16.6989185" id="Fill-99" fill="#82837F"></path>
            <polyline id="Fill-100" fill="#B3472C" points="19.3393971 17.0227639 16.2809302 17.0226266 16.2809302 12.4769785 20.8053397 12.4769785 20.8053397 15.5747983"></polyline>
            <path d="M16.5068909,12.7042747 L20.5791056,12.7042747 L20.5791056,15.7981116 L19.5694588,16.7954678 L16.5068909,16.7954678 L16.5068909,12.7042747 Z M16.0545593,17.2501974 L21.0315739,17.2501974 L21.0315739,12.2496824 L16.0545593,12.2496824 L16.0545593,17.2501974 Z" id="Fill-101" fill="#FFFFFE"></path>
            <path d="M20.8188728,16.6989185 C20.8188728,16.8922918 20.6630378,17.0489957 20.4704312,17.0489957 C20.278098,17.0489957 20.1221263,16.8922918 20.1221263,16.6989185 C20.1221263,16.5055451 20.278098,16.3488412 20.4704312,16.3488412 C20.6630378,16.3488412 20.8188728,16.5055451 20.8188728,16.6989185" id="Fill-102" fill="#82837F"></path>
            <polyline id="Fill-103" fill="#DB532A" points="13.367089 17.0227639 10.3083487 17.0226266 10.3083487 12.4769785 14.8328949 12.4769785 14.8328949 15.5747983"></polyline>
            <path d="M10.5345828,12.7042747 L14.6066608,12.7042747 L14.6066608,15.7982489 L13.5971507,16.7954678 L10.5345828,16.7954678 L10.5345828,12.7042747 Z M10.0821145,17.2501974 L15.0591291,17.2501974 L15.0591291,12.2496824 L10.0821145,12.2496824 L10.0821145,17.2501974 Z" id="Fill-104" fill="#FFFFFE"></path>
            <path d="M14.846428,16.6989185 C14.846428,16.8922918 14.690593,17.0489957 14.4981231,17.0489957 C14.3057899,17.0489957 14.1496815,16.8922918 14.1496815,16.6989185 C14.1496815,16.5055451 14.3057899,16.3488412 14.4981231,16.3488412 C14.690593,16.3488412 14.846428,16.5055451 14.846428,16.6989185" id="Fill-105" fill="#82837F"></path>
            <polyline id="Fill-106" fill="#E26233" points="7.39464424 17.0227639 4.33590388 17.0226266 4.33590388 12.4769785 8.86045014 12.4769785 8.86045014 15.5747983"></polyline>
            <path d="M4.56213803,12.7042747 L8.63421599,12.7042747 L8.63421599,15.7982489 L7.62470591,16.7954678 L4.56213803,16.7954678 L4.56213803,12.7042747 Z M4.10966974,17.2501974 L9.08668429,17.2501974 L9.08668429,12.2496824 L4.10966974,12.2496824 L4.10966974,17.2501974 Z" id="Fill-107" fill="#FFFFFE"></path>
            <path d="M8.87398318,16.6989185 C8.87398318,16.8922918 8.71814818,17.0489957 8.52567828,17.0489957 C8.33320838,17.0489957 8.17723668,16.8922918 8.17723668,16.6989185 C8.17723668,16.5055451 8.33320838,16.3488412 8.52567828,16.3488412 C8.71814818,16.3488412 8.87398318,16.5055451 8.87398318,16.6989185" id="Fill-108" fill="#82837F"></path>
            <polyline id="Fill-109" fill="#E26233" points="25.3118419 11.0222833 22.2532383 11.0222833 22.2532383 6.47649785 26.7776478 6.47649785 26.7776478 9.57445494"></polyline>
            <path d="M22.4794724,6.70379399 L26.5515504,6.70379399 L26.5515504,9.79776824 L25.5419036,10.7951245 L22.4794724,10.7951245 L22.4794724,6.70379399 Z M22.0270041,11.2495794 L27.0040187,11.2495794 L27.0040187,6.24920172 L22.0270041,6.24920172 L22.0270041,11.2495794 Z" id="Fill-110" fill="#FFFFFE"></path>
            <path d="M26.7913176,10.6983004 C26.7913176,10.8918112 26.6354826,11.0483777 26.4430127,11.0483777 C26.2506795,11.0483777 26.0945711,10.8918112 26.0945711,10.6983004 C26.0945711,10.504927 26.2506795,10.3483605 26.4430127,10.3483605 C26.6354826,10.3483605 26.7913176,10.504927 26.7913176,10.6983004" id="Fill-111" fill="#82837F"></path>
            <polyline id="Fill-112" fill="#F0A87E" points="19.3393971 11.0222833 16.2809302 11.0222833 16.2809302 6.47649785 20.8053397 6.47649785 20.8053397 9.57445494"></polyline>
            <path d="M16.5068909,6.70379399 L20.5791056,6.70379399 L20.5791056,9.79776824 L19.5694588,10.7951245 L16.5068909,10.7951245 L16.5068909,6.70379399 Z M16.0545593,11.2495794 L21.0315739,11.2495794 L21.0315739,6.24920172 L16.0545593,6.24920172 L16.0545593,11.2495794 Z" id="Fill-113" fill="#FFFFFE"></path>
            <path d="M20.8188728,10.6983004 C20.8188728,10.8918112 20.6630378,11.0483777 20.4704312,11.0483777 C20.278098,11.0483777 20.1221263,10.8918112 20.1221263,10.6983004 C20.1221263,10.504927 20.278098,10.3483605 20.4704312,10.3483605 C20.6630378,10.3483605 20.8188728,10.504927 20.8188728,10.6983004" id="Fill-114" fill="#82837F"></path>
            <polyline id="Fill-115" fill="#FADCC8" points="13.367089 11.0222833 10.3083487 11.0222833 10.3083487 6.47649785 14.8328949 6.47649785 14.8328949 9.57445494"></polyline>
            <path d="M10.5345828,6.70379399 L14.6066608,6.70379399 L14.6066608,9.79790558 L13.5971507,10.7951245 L10.5345828,10.7951245 L10.5345828,6.70379399 Z M10.0821145,11.2495794 L15.0591291,11.2495794 L15.0591291,6.24920172 L10.0821145,6.24920172 L10.0821145,11.2495794 Z" id="Fill-116" fill="#FFFFFE"></path>
            <path d="M14.846428,10.6983004 C14.846428,10.8918112 14.690593,11.0483777 14.4981231,11.0483777 C14.3057899,11.0483777 14.1496815,10.8918112 14.1496815,10.6983004 C14.1496815,10.504927 14.3057899,10.3483605 14.4981231,10.3483605 C14.690593,10.3483605 14.846428,10.504927 14.846428,10.6983004" id="Fill-117" fill="#82837F"></path>
            <polyline id="Fill-118" fill="#FFF2E9" points="7.39464424 11.0222833 4.33590388 11.0222833 4.33590388 6.47649785 8.86045014 6.47649785 8.86045014 9.57445494"></polyline>
            <path d="M4.56213803,6.70379399 L8.63421599,6.70379399 L8.63421599,9.79790558 L7.62470591,10.7951245 L4.56213803,10.7951245 L4.56213803,6.70379399 Z M4.10966974,11.2495794 L9.08668429,11.2495794 L9.08668429,6.24920172 L4.10966974,6.24920172 L4.10966974,11.2495794 Z" id="Fill-119" fill="#FFFFFE"></path>
            <path d="M8.87398318,10.6983004 C8.87398318,10.8918112 8.71814818,11.0483777 8.52567828,11.0483777 C8.33320838,11.0483777 8.17723668,10.8918112 8.17723668,10.6983004 C8.17723668,10.504927 8.33320838,10.3483605 8.52567828,10.3483605 C8.71814818,10.3483605 8.87398318,10.504927 8.87398318,10.6983004" id="Fill-120" fill="#82837F"></path>
        </g>
    </g>
</svg>

<svg xmlns="http://www.w3.org/2000/svg" xmlns:xlink="http://www.w3.org/1999/xlink" viewBox="0 0 31 32"><defs><linearGradient x1="50%" y1="100%" x2="50%" y2="0%" id="b"><stop stop-color="#DEDFD9" offset="0%"/><stop stop-color="#FFFFFE" offset="100%"/></linearGradient><linearGradient x1="50%" y1="98.123%" x2="50%" y2="-1.878%" id="d"><stop stop-color="#D8D8D2" offset="0%"/><stop stop-color="#FFFFFE" offset="100%"/></linearGradient><path id="a" d="M.128.049h30.858V23.35H.128z"/></defs><g fill="none" fill-rule="evenodd"><path fill="#4D7576" d="M.128 31.951h30.858V.461H.128z"/><path fill="#DCDAD7" d="M.128 31.951h30.858V.05H.128z"/><mask id="c" fill="#fff"><use xlink:href="#a"/></mask><path fill="url(#b)" mask="url(#c)" d="M.128 23.35h30.858V.05H.128z"/><path fill="url(#d)" d="M1.124 22.35H29.99V1.05H1.124z"/><path fill="#0C0C0A" d="M.128 31.951h30.858v-8.6H.128z"/><path d="M12.302 27.911l-.296-1.066c-.085-.298-.17-.671-.24-.97h-.015c-.07.299-.141.68-.22.97l-.282 1.066h1.053zm-1.208.85l-.34 1.29H9.639l1.456-5.025h1.413l1.477 5.025h-1.159l-.367-1.29h-1.364zm3.562.119c.29.157.735.313 1.194.313.495 0 .756-.216.756-.544 0-.313-.226-.492-.798-.708-.792-.29-1.308-.753-1.308-1.484 0-.857.679-1.513 1.802-1.513.537 0 .933.119 1.216.253l-.24.917a2.167 2.167 0 00-.997-.238c-.466 0-.692.223-.692.484 0 .321.268.463.883.709.841.328 1.237.79 1.237 1.498 0 .843-.615 1.559-1.923 1.559-.544 0-1.08-.15-1.35-.306l.22-.94m6.614-.954h-1.752v1.193h1.958v.932h-3.04v-5.025h2.94v.932h-1.858v1.044h1.753v.924" fill="#E56F34"/><path fill="#883725" d="M25.312 17.023h-3.059v-4.546h4.525v3.098"/><path d="M22.48 12.704h4.072v3.094l-1.01.997h-3.063v-4.09zm-.453 4.546h4.977v-5h-4.977v5z" fill="#FFFFFE"/><path d="M26.791 16.699a.35.35 0 11-.696 0 .35.35 0 11.697 0" fill="#82837F"/><path fill="#B3472C" d="M19.34 17.023h-3.06v-4.546h4.525v3.098"/><path d="M16.507 12.704h4.072v3.094l-1.01.997h-3.062v-4.09zm-.452 4.546h4.977v-5h-4.977v5z" fill="#FFFFFE"/><path d="M20.819 16.699a.35.35 0 11-.697 0 .35.35 0 11.697 0" fill="#82837F"/><path fill="#DB532A" d="M13.367 17.023h-3.059v-4.546h4.525v3.098"/><path d="M10.535 12.704h4.072v3.094l-1.01.997h-3.062v-4.09zm-.453 4.546h4.977v-5h-4.977v5z" fill="#FFFFFE"/><path d="M14.846 16.699a.35.35 0 11-.696 0 .35.35 0 11.697 0" fill="#82837F"/><path fill="#E26233" d="M7.395 17.023h-3.06v-4.546H8.86v3.098"/><path d="M4.562 12.704h4.072v3.094l-1.01.997H4.563v-4.09zM4.11 17.25h4.977v-5H4.11v5z" fill="#FFFFFE"/><path d="M8.874 16.699a.35.35 0 11-.697 0 .35.35 0 11.697 0" fill="#82837F"/><path fill="#E26233" d="M25.312 11.022h-3.059V6.476h4.525v3.098"/><path d="M22.48 6.704h4.072v3.094l-1.01.997h-3.063V6.704zm-.453 4.546h4.977v-5h-4.977v5z" fill="#FFFFFE"/><path d="M26.791 10.698a.349.349 0 11-.696 0 .35.35 0 11.696 0" fill="#82837F"/><path fill="#F0A87E" d="M19.34 11.022h-3.06V6.476h4.525v3.098"/><path d="M16.507 6.704h4.072v3.094l-1.01.997h-3.062V6.704zm-.452 4.546h4.977v-5h-4.977v5z" fill="#FFFFFE"/><path d="M20.819 10.698a.349.349 0 11-.697 0 .35.35 0 11.697 0" fill="#82837F"/><path fill="#FADCC8" d="M13.367 11.022h-3.059V6.476h4.525v3.098"/><path d="M10.535 6.704h4.072v3.094l-1.01.997h-3.062V6.704zm-.453 4.546h4.977v-5h-4.977v5z" fill="#FFFFFE"/><path d="M14.846 10.698a.349.349 0 11-.696 0 .35.35 0 11.696 0" fill="#82837F"/><path fill="#FFF2E9" d="M7.395 11.022h-3.06V6.476H8.86v3.098"/><path d="M4.562 6.704h4.072v3.094l-1.01.997H4.563V6.704zM4.11 11.25h4.977v-5H4.11v5z" fill="#FFFFFE"/><path d="M8.874 10.698a.349.349 0 11-.697 0 .35.35 0 11.697 0" fill="#82837F"/></g></svg>
